X: 5087
T: Bridge Attack
R: reel
M: 4/4
K: Adorian
|:LA,A, (3B,CD LEFGA|L(3GAG FE LFADE|LA,A, (3B,CD LEFGA|L(3GAG FG LAEAB|
LcEELc EELBE|L(3ABA GF LEFGLB|EELAE LGELFD|L(3GFD B,E LA,2 z2|
LA,A, (3B,CD LEFGA|L(3GAG FE LFADE|LA,A, (3B,CD LEFGA|L(3GAG FG LAEAB|
LcEELc EELBE|L(3ABA GF LEFGLB|EELAE LGELFD|L(3GFD B,E LA,2 z2|
L(3DEF GA LB^cde|L(3fgf ed L^cdLBd|L(3ABc BA LGALEG|LADDLA DDLAD|
L(3DEF GA LB^cde|L(3fgf ed L^cdLBd|L(3ABc BA LGALEG|LADDLA DDLAD|
LdE^cE LBEAE|L(3GAG FE LFGAB|LdE^cE LBEAE|L(3GAG FE LFGAB|
LBGEL^c AELdA|FLe^cA LfdAA|L(3fgf ed L^cdBA|L(3GAG FE LDEB,E:|
LA,A, (3B,CD LEFGA|L(3GAG FE LFADE|LA,A, (3B,CD LEFGA|L(3GAG FG LAEAB|
LcEELc EELBE|L(3ABA GF LEFGLB|EELAE LGELFD|L(3GFD B,E LA,2 z2|
LA,A, (3B,CD LEFGA|L(3GAG FE LFADE|LA,A, (3B,CD LEFGA|L(3GAG FG LAEAB|
LcEELc EELBE|L(3ABA GF LEFGLB|EELAE LGELFD|L(3GFD B,E LA,2 z2|
LA,A, (3B,CD LEFGA|L(3GAG FE LFADE|LA,A, (3B,CD LEFGA|L(3GAG FE LFADE|
LA,A, (3B,CD LEFGA|L(3GAG FE LFADE|LA,A, (3B,CD LEFGA|L(3Bcd eg La2 z2||

